Catalina-light/actions/16/tag-new.svg

<svg width="16" height="16" viewBox="0 0 16 16" xmlns="http://www.w3.org/2000/svg">
<defs>
<style id="current-color-scheme" type="text/css">.ColorScheme-Text { color:#5c616c; } .ColorScheme-Highlight { color:#5294e2; }</style>
</defs>
<path class="ColorScheme-Text" d="m4 1s-2 0-2 2v5l7 7 7-7-7-7h-5zm3 3h2v2h2v2h-2v2h-2v-2h-2v-2h2v-2z" fill="#363636"/>
</svg>

<svg xmlns="http://www.w3.org/2000/svg" width="16" height="16" viewBox="0 0 16 16">
 <defs>
  <style id="current-color-scheme" type="text/css">
   .ColorScheme-Text { color:#5c616c; } .ColorScheme-Highlight { color:#5294e2; }
  </style>
 </defs>
 <path style="fill:currentColor" class="ColorScheme-Text" d="M 4 1 C 4 1 2 1 2 3 L 2 8 L 9 15 L 16 8 L 9 1 L 4 1 z M 7 4 L 9 4 L 9 6 L 11 6 L 11 8 L 9 8 L 9 10 L 7 10 L 7 8 L 5 8 L 5 6 L 7 6 L 7 4 z"/>
</svg>
